resources/haticons/SVG/preview.svg

<!-- Generated by IcoMoon.io -->
<svg version="1.1" xmlns="http://www.w3.org/2000/svg" width="24" height="24" viewBox="0 0 24 24">
<title>preview</title>
<path d="M18.984 3h-13.969q-0.844 0-1.43 0.586t-0.586 1.43v13.969q0 0.844 0.586 1.43t1.43 0.586h13.969q0.844 0 1.43-0.586t0.586-1.43v-13.969q0-0.844-0.586-1.43t-1.43-0.586zM18.984 18.984h-13.969v-12h13.969v12zM13.5 12.984q0 0.656-0.445 1.078t-1.055 0.422-1.055-0.422-0.445-1.078q0-0.609 0.445-1.055t1.055-0.445 1.055 0.445 0.445 1.055zM12 9q-1.359 0-2.555 0.516t-2.086 1.406-1.359 2.063q0.469 1.172 1.359 2.086t2.086 1.43 2.555 0.516 2.555-0.516 2.086-1.43 1.359-2.086q-0.469-1.172-1.359-2.063t-2.086-1.406-2.555-0.516zM12 15.516q-1.031 0-1.758-0.75t-0.727-1.781 0.727-1.758 1.758-0.727 1.758 0.727 0.727 1.758-0.727 1.781-1.758 0.75z"></path>
</svg>

<svg xmlns="http://www.w3.org/2000/svg" width="24" height="24"><path d="M18.984 3H5.015q-.844 0-1.43.586t-.586 1.43v13.969q0 .844.586 1.43t1.43.586h13.969q.844 0 1.43-.586t.586-1.43V5.016q0-.844-.586-1.43T18.984 3zm0 15.984H5.015v-12h13.969v12zm-5.484-6q0 .656-.445 1.078T12 14.484t-1.055-.422-.445-1.078q0-.609.445-1.055T12 11.484t1.055.445.445 1.055zM12 9q-1.359 0-2.555.516t-2.086 1.406T6 12.985q.469 1.172 1.359 2.086t2.086 1.43 2.555.516 2.555-.516 2.086-1.43T18 12.985q-.469-1.172-1.359-2.063t-2.086-1.406T12 9zm0 6.516q-1.031 0-1.758-.75t-.727-1.781.727-1.758T12 10.5t1.758.727.727 1.758-.727 1.781-1.758.75z"/></svg>
